X: 80
T: Missa Inviolata / Credo
N: Derived from Rue1017c-Missa_Inviolata-Credo.krn
C: Pierre de la Rue
%%abc-version 2.0
%%abcx-abcm2ps-target-version 5.9.1 (29 Sep 2008)
%%abc-creator hum2abc beta
%%abcx-conversion-date 2019/02/17 08:01:13
%%abc-edited-by Jesse Rodin
%%abc-edited-by Chris Gage 05-14-2013
%%abcx-initial-encoding-date 2013/07/24/
%%humdrum-veritas 1037871149
%%humdrum-veritas-data 41989170
%%linebreak <none>
%%barnumbers 0
L: 1/4
M: 4/2
Q: 1/2=120
%%staves [1 2 3 4]
V: 1 clef=treble
V: 2 clef=treble
V: 3 clef=treble-8
V: 4 clef=bass
K: C
[V:1] z8 | 
[V:2] z4G4 | 
[V:3] c4c4 | 
[V:4] z8 | 
[V:1] z4c4 | 
[V:2] G4z2G2 | 
[V:3] z2c2c3d | 
[V:4] z8 | 
[V:1] c6c2 | 
[V:2] G2A4GF | 
[V:3] e2f4ed | 
[V:4] z8 | 
[V:1] c2c2d2ed | 
[V:2] G2A4B2 | 
[V:3] e2f2d4 | 
[V:4] z8 | 
[V:1] e8 | 
[V:2] c8 | 
[V:3] c4z2e2 | 
[V:4] z2C2C2A,2- | 
[V:1] z8 | 
[V:2] z8 | 
[V:3] e2f4d2 | 
[V:4] A,2D3CB,A, | 
[V:1] z8 | 
[V:2] z8 | 
[V:3] g3fedf2- | 
[V:4] G,2C3B,A,G, | 
[V:1] z4e4 | 
[V:2] z8 | 
[V:3] fed4^c2 | 
[V:4] A,2F,2E,4 | 
[V:1] f6ed | 
[V:2] A6GF | 
[V:3] d8 | 
[V:4] D,8 | 
[V:1] e2d3cA2- | 
[V:2] G2F2D3E | 
[V:3] z4f4 | 
[V:4] z4z2D,2- | 
[V:1] A2d4c2- | 
[V:2] FGA4GF | 
[V:3] f2d3cAB | 
[V:4] D,2D,2F,3E, | 
[V:1] cBG4c2- | 
[V:2] E2EFGAF2 | 
[V:3] cde4A2 | 
[V:4] C,2C,2E,2F,2 | 
[V:1] c2c2d2f2- | 
[V:2] G2A2F4 | 
[V:3] G2c4B2 | 
[V:4] E,2F,2D,4 | 
[V:1] fee4c2- | 
[V:2] z4G4- | 
[V:3] c4z2c2 | 
[V:4] C,8 | 
[V:1] c2BAB4 | 
[V:2] G8- | 
[V:3] c2c2d3c | 
[V:4] z4G,3A, | 
[V:1] z8 | 
[V:2] G4G4- | 
[V:3] d2e3cd2 | 
[V:4] B,2C4B,2 | 
[V:1] z8 | 
[V:2] G4G4 | 
[V:3] e4d2e2 | 
[V:4] C4B,2C2 | 
[V:1] z8 | 
[V:2] G2G4FE | 
[V:3] d2e4dc | 
[V:4] G,2C,2E,D,E,F, | 
[V:1] z2G2BABc | 
[V:2] D2D2GFGA | 
[V:3] B4d4- | 
[V:4] G,8- | 
[V:1] d2G2d4 | 
[V:2] B2B2G4 | 
[V:3] d4z2d2 | 
[V:4] G,8 | 
[V:1] z2G2BABc | 
[V:2] z2G2GFGA | 
[V:3] e4e2e2 | 
[V:4] z8 | 
[V:1] d2g4fe | 
[V:2] B6B2 | 
[V:3] d8 | 
[V:4] G,6G,2 | 
[V:1] d6G2 | 
[V:2] B4A2B2- | 
[V:3] z2d4d2 | 
[V:4] G,2G,2D,2G,2- | 
[V:1] B3cd4 | 
[V:2] B2G2A2B2 | 
[V:3] e4d4 | 
[V:4] G,2E,2F,2G,2 | 
[V:1] e8 | 
[V:2] c2BAGFED | 
[V:3] c4z2g2- | 
[V:4] C,8 | 
[V:1] z8 | 
[V:2] C2G4G2 | 
[V:3] g2g2e4 | 
[V:4] z2C4C2 | 
[V:1] z8 | 
[V:2] A2A2F4 | 
[V:3] e2f3dd2- | 
[V:4] A,2A,2B,3G, | 
[V:1] z8 | 
[V:2] G2G4FE | 
[V:3] dcBAG4 | 
[V:4] G,8 | 
[V:1] z8 | 
[V:2] DCB,A,G,2G2- | 
[V:3] z2d4d2 | 
[V:4] z4z2G,2- | 
[V:1] z8 | 
[V:2] G2G2E2E2 | 
[V:3] e2e2c4 | 
[V:4] G,2G,2A,2A,2 | 
[V:1] z8 | 
[V:2] F2D2E2F2- | 
[V:3] A2B3AA2- | 
[V:4] F,2G,3F,D,2- | 
[V:1] z8 | 
[V:2] FED4^C2 | 
[V:3] A2F2G4 | 
[V:4] D,E,F,2E,4 | 
[V:1] z2A4A2 | 
[V:2] D8 | 
[V:3] A4z2A2 | 
[V:4] D,8 | 
[V:1] d2d2c3B | 
[V:2] z4z2D2 | 
[V:3] B2G2A2B2 | 
[V:4] z8 | 
[V:1] G2A2B2G2 | 
[V:2] E2C2D2E2 | 
[V:3] c3BG4 | 
[V:4] z8 | 
[V:1] A2B2c3B | 
[V:2] F3EC4 | 
[V:3] z4e4 | 
[V:4] z8 | 
[V:1] G2d4B2 | 
[V:2] z2G4G2 | 
[V:3] d2B2d3c | 
[V:4] G,6G,2 | 
[V:1] d3cB2d2- | 
[V:2] G4G2G2- | 
[V:3] B2d4B2- | 
[V:4] G,4G,4 | 
[V:1] dcBAG2B2 | 
[V:2] G2FED2G2- | 
[V:3] B2G2B3c | 
[V:4] G,8 | 
[V:1] A4G4 | 
[V:2] G2^F2G2B2 | 
[V:3] d6G2 | 
[V:4] z4G,4 | 
[V:1] z8 | 
[V:2] G2B3AGF | 
[V:3] G8- | 
[V:4] E,2G,3F,E,2- | 
[V:1] z4z2e2 | 
[V:2] G8 | 
[V:3] G8 | 
[V:4] E,2G,3F,E,D, | 
[V:1] e2e2d2e2- | 
[V:2] E2G3FED | 
[V:3] z8 | 
[V:4] C,2C2B,2C2- | 
[V:1] e2dcB4 | 
[V:2] E2F2G4- | 
[V:3] z8 | 
[V:4] C2B,A,G,4 | 
[V:1] z8 | 
[V:2] G4z4 | 
[V:3] e4e2e2- | 
[V:4] z2C4C2 | 
[V:1] z8 | 
[V:2] z8 | 
[V:3] e2e2d2f2- | 
[V:4] C2C2B,2D2- | 
[V:1] z8 | 
[V:2] z8 | 
[V:3] fedcd4 | 
[V:4] D2C3B,B,2 | 
[V:1] z2e4e2 | 
[V:2] G4G2G2 | 
[V:3] c8 | 
[V:4] C4C,4 | 
[V:1] e2e2dcd2 | 
[V:2] C2G2FEF2 | 
[V:3] z8 | 
[V:4] z8 | 
[V:1] e2fedce2 | 
[V:2] G2A2B2c2- | 
[V:3] z8 | 
[V:4] z8 | 
[V:1] d4c4 | 
[V:2] c2B2c4 | 
[V:3] z4c4 | 
[V:4] z8 | 
[V:1] z8 | 
[V:2] z2B4B2 | 
[V:3] d4d4- | 
[V:4] G,4G,2G,2 | 
[V:1] z8 | 
[V:2] A2B4AG | 
[V:3] d4d4 | 
[V:4] F,2G,4F,E, | 
[V:1] d4d2d2 | 
[V:2] A8- | 
[V:3] d4d4 | 
[V:4] D,8 | 
[V:1] c2d4cB | 
[V:2] A8 | 
[V:3] f8- | 
[V:4] z8 | 
[V:1] A2A2c2d2 | 
[V:2] z8 | 
[V:3] f8 | 
[V:4] z8 | 
[V:1] e2c2g4 | 
[V:2] z8 | 
[V:3] e8 | 
[V:4] z4z2C,2 | 
[V:1] g2e4dc | 
[V:2] G4G2G2 | 
[V:3] e4e4 | 
[V:4] C,2C,2E,2F,2 | 
[V:1] B2B2c4 | 
[V:2] G2D2G4- | 
[V:3] d4e4 | 
[V:4] G,4C,4 | 
[V:1] B8 | 
[V:2] G2G2G4 | 
[V:3] d2d2e4 | 
[V:4] G,8 | 
[V:1] z2d2d4 | 
[V:2] z4z2G2 | 
[V:3] d4d4 | 
[V:4] z2G,2G,4 | 
[V:1] e3dcBd2- | 
[V:2] G2E4F2 | 
[V:3] g6f2 | 
[V:4] C,3D,E,2D,2 | 
[V:1] d2c4B2 | 
[V:2] G2A2GFED | 
[V:3] e4d4 | 
[V:4] E,2C,2G,4 | 
[V:1] c8 | 
[V:2] E2E2E2G2- | 
[V:3] c8- | 
[V:4] C,8- | 
[V:1] z2e2e2g2- | 
[V:2] G2F2E2DC | 
[V:3] c8 | 
[V:4] C,8 | 
[V:1] g2f2e2dc | 
[V:2] B,3G,G,4- | 
[V:3] z4z2e2 | 
[V:4] z4C,4 | 
[V:1] B2E2B2c2 | 
[V:2] G,4G4- | 
[V:3] e2g3fe2- | 
[V:4] E,2E,4C,2 | 
[V:1] B8- | 
[V:2] G8- | 
[V:3] e2dcd2G2 | 
[V:4] E,2G,2G,4- | 
[V:1] B8 ||  
[V:2] G8 ||  
[V:3] d2e2d4 ||  
[V:4] G,8 ||  
[V:1]  [K:C] [K:clef=treble][M:4/2]c6BA | 
[V:2]  [K:C] [K:clef=treble][M:4/2]z4C3D | 
[V:3]  [K:C] [K:clef=treble-8][M:4/2]c8 | 
[V:4]  [K:C] [K:clef=bass][M:4/2]z8 | 
[V:1] G2A4G2 | 
[V:2] E2F3EE2 | 
[V:3] c4c4 | 
[V:4] z8 | 
[V:1] F2E2D4 | 
[V:2] FEDCB,2CB, | 
[V:3] d4d4 | 
[V:4] z8 | 
[V:1] C4z4 | 
[V:2] C4z2C2 | 
[V:3] e8 | 
[V:4] C6B,A, | 
[V:1] z8 | 
[V:2] D2F3EE2 | 
[V:3] z8 | 
[V:4] G,2A,4G,2 | 
[V:1] z8 | 
[V:2] FEDCB,2CB, | 
[V:3] f8 | 
[V:4] F,2E,2D,4 | 
[V:1] z8 | 
[V:2] C4z2G2 | 
[V:3] e4e4 | 
[V:4] C,8 | 
[V:1] f8 | 
[V:2] A4A4- | 
[V:3] d6cB | 
[V:4] z8 | 
[V:1] f4f4 | 
[V:2] A4F4 | 
[V:3] c4d4 | 
[V:4] F,8 | 
[V:1] e8 | 
[V:2] G2A2G4 | 
[V:3] e3dc2BA | 
[V:4] C,4C,4 | 
[V:1] d6d2 | 
[V:2] G6G2 | 
[V:3] B4z2B2 | 
[V:4] G,6F,G, | 
[V:1] d8 | 
[V:2] A2F2G2D2- | 
[V:3] A2d3cB2 | 
[V:4] F,2_B,3A,G,2 | 
[V:1] d4dcBA | 
[V:2] D2G4^F2 | 
[V:3] A2G2A4 | 
[V:4] F,2G,2D,4 | 
[V:1] B8 | 
[V:2] G4z2G2 | 
[V:3] G2B2G2B2- | 
[V:4] z2G,2E,2G,2- | 
[V:1] z4d3c | 
[V:2] D2G4^F2 | 
[V:3] B2AGA4 | 
[V:4] G,2F,E,D,4 | 
[V:1] B2G2d4 | 
[V:2] G6FE | 
[V:3] G4z2B2 | 
[V:4] z4G,4 | 
[V:1] c2e3fg2- | 
[V:2] E2C2E3F | 
[V:3] c4c4 | 
[V:4] A,4C4 | 
[V:1] g2fed4 | 
[V:2] G2A2B4 | 
[V:3] d4d4 | 
[V:4] G,4G,4 | 
[V:1] z2e2e4 | 
[V:2] c8 | 
[V:3] c8 | 
[V:4] C,8 | 
[V:1] f4e4 | 
[V:2] z2A2A4 | 
[V:3] z8 | 
[V:4] z8 | 
[V:1] d2B2c2A2 | 
[V:2] B4A4 | 
[V:3] z8 | 
[V:4] z8 | 
[V:1] B2c2A2d2- | 
[V:2] G2E2F2D2 | 
[V:3] z8 | 
[V:4] z8 | 
[V:1] dcc2d2f2- | 
[V:2] E2F2D4 | 
[V:3] z8 | 
[V:4] z8 | 
[V:1] f2edc4 | 
[V:2] A8 | 
[V:3] z8 | 
[V:4] z8 | 
[V:1] z2f4e2 | 
[V:2] z2A4G2 | 
[V:3] z8 | 
[V:4] z8 | 
[V:1] f2e3dcB | 
[V:2] A2G2A3G | 
[V:3] z8 | 
[V:4] z8 | 
[V:1] A2d4^c2 | 
[V:2] FED2E4 | 
[V:3] z8 | 
[V:4] z8 | 
[V:1] d4z2A2 | 
[V:2] D4D4 | 
[V:3] f8 | 
[V:4] z4D,4 | 
[V:1] d4c4- | 
[V:2] D4A4- | 
[V:3] f4f4- | 
[V:4] D,4F,4- | 
[V:1] c4A4 | 
[V:2] A4A4 | 
[V:3] f4f4 | 
[V:4] F,4F,4 | 
[V:1] c4d4 | 
[V:2] A4A4 | 
[V:3] f4f4 | 
[V:4] F,4D,4 | 
[V:1] e8- | 
[V:2] A8- | 
[V:3] e8 | 
[V:4] A,8 | 
[V:1] e8 | 
[V:2] A8 | 
[V:3] z4c4 | 
[V:4] z2A,2A,2A,2- | 
[V:1] z8 | 
[V:2] z8 | 
[V:3] c4e4 | 
[V:4] A,2G,F,G,2A,2 | 
[V:1] z8 | 
[V:2] z8 | 
[V:3] f4e4 | 
[V:4] D,4z2A,2 | 
[V:1] z8 | 
[V:2] z8 | 
[V:3] z2e2e2e2- | 
[V:4] A,2G,F,G,2A,2 | 
[V:1] z8 | 
[V:2] z8 | 
[V:3] e2dcd2e2 | 
[V:4] E,4z2C2- | 
[V:1] z8 | 
[V:2] z8 | 
[V:3] A4z2e2 | 
[V:4] C2B,A,G,2A,2 | 
[V:1] z8 | 
[V:2] z8 | 
[V:3] g4g2fe | 
[V:4] E,8 | 
[V:1] z8 | 
[V:2] z8 | 
[V:3] d2e2B2e2 | 
[V:4] z2E,2G,4 | 
[V:1] z8 | 
[V:2] z8 | 
[V:3] d2g4fe | 
[V:4] G,4A,4 | 
[V:1] z8 | 
[V:2] A4A2A2 | 
[V:3] f2e4d2 | 
[V:4] A,G,F,E,F,4 | 
[V:1] e4e2e2 | 
[V:2] G2E3FG2- | 
[V:3] e8 | 
[V:4] E,8 | 
[V:1] d2B3cd2- | 
[V:2] G2FED3E | 
[V:3] z8 | 
[V:4] z8 | 
[V:1] d2cBA4 | 
[V:2] F2G4^F2 | 
[V:3] z4d4 | 
[V:4] z8 | 
[V:1] G8 | 
[V:2] G4G,3A, | 
[V:3] e4e2e2- | 
[V:4] z4C,4 | 
[V:1] z8 | 
[V:2] B,2C4B,A, | 
[V:3] e2dce2f2 | 
[V:4] E,6D,C, | 
[V:1] z8 | 
[V:2] G,3A,B,CD2- | 
[V:3] g8 | 
[V:4] E,2F,2G,4 | 
[V:1] z8 | 
[V:2] D2C4B,2 | 
[V:3] f4d4 | 
[V:4] D,3E,F,2G,2 | 
[V:1] G2GABcd2- | 
[V:2] C2G4A2- | 
[V:3] e4e2f2- | 
[V:4] C,2E,4D,2 | 
[V:1] d2c4B2 | 
[V:2] AGFEG4 | 
[V:3] fedcd4 | 
[V:4] F,2A,2G,4 | 
[V:1] c4z2c2- | 
[V:2] z2E3FGE | 
[V:3] c8 | 
[V:4] C,8 | 
[V:1] cdecf2f2 | 
[V:2] A2A2F2F2 | 
[V:3] z8 | 
[V:4] z8 | 
[V:1] d2d2e2e2 | 
[V:2] G2G2C4 | 
[V:3] z8 | 
[V:4] z8 | 
[V:1] A2c4BA | 
[V:2] z2A4GF | 
[V:3] z8 | 
[V:4] z8 | 
[V:1] B2c2d2A2- | 
[V:2] G2A2D2F2- | 
[V:3] z8 | 
[V:4] z8 | 
[V:1] A2GFG2A2 | 
[V:2] F2EDE2F2 | 
[V:3] z8 | 
[V:4] z8 | 
[V:1] F4E4 | 
[V:2] D4C4- | 
[V:3] z4z2e2 | 
[V:4] z8 | 
[V:1] z2e2g4- | 
[V:2] C8- | 
[V:3] g6g2 | 
[V:4] z8 | 
[V:1] g4e2f2- | 
[V:2] C4z4 | 
[V:3] g4a4- | 
[V:4] z8 | 
[V:1] fedcB4 | 
[V:2] z8 | 
[V:3] a4g4 | 
[V:4] z8 | 
[V:1] z4c4 | 
[V:2] A8 | 
[V:3] z2c2f4 | 
[V:4] F,8 | 
[V:1] c4c4 | 
[V:2] A4A4 | 
[V:3] f4f4- | 
[V:4] F,4F,4 | 
[V:1] A4A2c2- | 
[V:2] c4c2A2- | 
[V:3] f4f4 | 
[V:4] F,8 | 
[V:1] c2BAc2A2 | 
[V:2] A2GFG2A2 | 
[V:3] c3de2dc | 
[V:4] F,4C,2F,2- | 
[V:1] d4f4 | 
[V:2] F8 | 
[V:3] dcBAB4 | 
[V:4] F,2E,2D,4 | 
[V:1] e8 | 
[V:2] z2G4F2 | 
[V:3] c8 | 
[V:4] C,8 | 
[V:1] z2d4c2 | 
[V:2] E2D2G2FE | 
[V:3] z4z2g2- | 
[V:4] G,6G,2 | 
[V:1] B2A2G4 | 
[V:2] D4z4 | 
[V:3] g2f2e2d2 | 
[V:4] G,2G,2G,4 | 
[V:1] c4B2B2 | 
[V:2] z8 | 
[V:3] c4g4 | 
[V:4] A,4G,2G,2 | 
[V:1] AGA2G4 | 
[V:2] z8 | 
[V:3] f2ede2e2 | 
[V:4] D,4G,4- | 
[V:1] z2d4c2 | 
[V:2] z8 | 
[V:3] d4z2g2- | 
[V:4] G,8- | 
[V:1] B2A2G4 | 
[V:2] z8 | 
[V:3] g2f2e2d2 | 
[V:4] G,4G,4 | 
[V:1] z2c3ABc | 
[V:2] z8 | 
[V:3] c4z2f2- | 
[V:4] z8 | 
[V:1] ABcdB2d2- | 
[V:2] z8 | 
[V:3] fdefdefg | 
[V:4] z8 | 
[V:1] d2c4B2 | 
[V:2] z8 | 
[V:3] e2f2d4 | 
[V:4] z2F,2G,2G,2 | 
[V:1] c4z4 | 
[V:2] z2C2D2D2 | 
[V:3] c4z4 | 
[V:4] A,2C4B,2 | 
[V:1] z8 | 
[V:2] E2G4F2 | 
[V:3] z8 | 
[V:4] C2B,A,G,2A,2 | 
[V:1] z8 | 
[V:2] G2FED2E2 | 
[V:3] z8 | 
[V:4] B,2C2D2G,2 | 
[V:1] z8 | 
[V:2] F2G2A2D2 | 
[V:3] z8 | 
[V:4] A,2B,2CA,D2 | 
[V:1] z8 | 
[V:2] E2F2GEA2- | 
[V:3] z8 | 
[V:4] G,2A,2B,2C2- | 
[V:1] z4c4 | 
[V:2] A2G4^F2 | 
[V:3] c8 | 
[V:4] CB,A,G,A,4 | 
[V:1] B4B4 | 
[V:2] G8 | 
[V:3] d4d4 | 
[V:4] G,4G,4 | 
[V:1] A8 | 
[V:2] z8 | 
[V:3] f4z2F2 | 
[V:4] F,2F,2D,4- | 
[V:1] z4A4 | 
[V:2] z8 | 
[V:3] F3GA2B2 | 
[V:4] D,4F,4 | 
[V:1] G4G4 | 
[V:2] z8 | 
[V:3] c2d4^c2 | 
[V:4] E,3D,E,4 | 
[V:1] F3GA2B2 | 
[V:2] A2A4G2 | 
[V:3] d8 | 
[V:4] D,8 | 
[V:1] c2d4c2 | 
[V:2] F2EDE2E2 | 
[V:3] z8 | 
[V:4] z8 | 
[V:1] d2cBA4 | 
[V:2] D4z2A2 | 
[V:3] f6f2 | 
[V:4] z2D,2D,3E, | 
[V:1] z2d2c2d2 | 
[V:2] A2B2c3B | 
[V:3] f4f4 | 
[V:4] F,2G,2A,2B,2 | 
[V:1] e2f2g3e | 
[V:2] A2A2G4 | 
[V:3] e3de4 | 
[V:4] C2D3CC2 | 
[V:1] f2edcBcd | 
[V:2] z2A3BcA | 
[V:3] d2d2edef | 
[V:4] D4A,4 | 
[V:1] e2d4^c2 | 
[V:2] B2G2A4- | 
[V:3] gfede4 | 
[V:4] G,2B,2A,4 | 
[V:1] d2A2B2B2 | 
[V:2] A2F2G4 | 
[V:3] d8- | 
[V:4] z2D,2G,2G,2 | 
[V:1] A4G2B2 | 
[V:2] FGAG/A/B2G2 | 
[V:3] d8- | 
[V:4] D,E,F,E,/F,/G,4 | 
[V:1] A2G4^F2 | 
[V:2] z2G2A2A2 | 
[V:3] d8 | 
[V:4] F,2G,2D,4 | 
[V:1] G8 | 
[V:2] B6AG | 
[V:3] z8 | 
[V:4] z2G,3A,B,2 | 
[V:1] z8 | 
[V:2] AGB2A2G2- | 
[V:3] z8 | 
[V:4] C2D4CB, | 
[V:1] z4B4 | 
[V:2] G2^F2G4 | 
[V:3] z4d4 | 
[V:4] A,4G,4 | 
[V:1] c2c2d4 | 
[V:2] z8 | 
[V:3] e2e2f4 | 
[V:4] z2C3B,B,2 | 
[V:1] G4z2e2 | 
[V:2] z8 | 
[V:3] e3cd2e2 | 
[V:4] C3A,B,2C2 | 
[V:1] d2B2c3d | 
[V:2] z8 | 
[V:3] f3de2f2 | 
[V:4] D3C/B,/A,4 | 
[V:1] B4z2d2 | 
[V:2] z2G2GAB2 | 
[V:3] g2fed4 | 
[V:4] G,8 | 
[V:1] e3fg4 | 
[V:2] c4z2G2 | 
[V:3] c8 | 
[V:4] C,8 | 
[V:1] z2d2e2f2 | 
[V:2] A2B2c2BA | 
[V:3] z8 | 
[V:4] z8 | 
[V:1] g2fed2e2 | 
[V:2] G2A2B2A2- | 
[V:3] z8 | 
[V:4] z8 | 
[V:1] f2e4dc | 
[V:2] A2GFE2G2- | 
[V:3] z8 | 
[V:4] z8 | 
[V:1] B2c4B2 | 
[V:2] G2FED4 | 
[V:3] z8 | 
[V:4] z4G,4 | 
[V:1] c8 | 
[V:2] C8 | 
[V:3] e4f2f2 | 
[V:4] A,2A,2F,4 | 
[V:1] z8 | 
[V:2] z8 | 
[V:3] d4g4 | 
[V:4] G,4E,2C,2 | 
[V:1] z8 | 
[V:2] z8 | 
[V:3] e2c2e2f2 | 
[V:4] E,2F,2G,4- | 
[V:1] d4B2G2 | 
[V:2] z8 | 
[V:3] g2fed4 | 
[V:4] G,8- | 
[V:1] B2c2d4 | 
[V:2] G8 | 
[V:3] z8 | 
[V:4] G,4G,4 | 
[V:1] G4z2c2 | 
[V:2] E2C2E2F2 | 
[V:3] z8 | 
[V:4] z4A,4 | 
[V:1] B2e4dc | 
[V:2] G4C4 | 
[V:3] z4e4 | 
[V:4] G,2C,2E,2F,2 | 
[V:1] B4e4 | 
[V:2] z2G4FE | 
[V:3] d2G2B2c2 | 
[V:4] G,8- | 
[V:1] d2G2B2c2 | 
[V:2] G2D2G3A | 
[V:3] d4e4 | 
[V:4] G,8- | 
[V:1] d6ed | 
[V:2] B2c4B2 | 
[V:3] d2d2g4 | 
[V:4] G,8 | 
[V:1] e2g4f2- | 
[V:2] c8 | 
[V:3] e2c2e2f2 | 
[V:4] z8 | 
[V:1] f2e4d2 | 
[V:2] z8 | 
[V:3] g2a2f4 | 
[V:4] z8 | 
[V:1] [M:3/1]e12 | 
[V:2] [M:3/1]G8G4 | 
[V:3] [M:3/1]e4e4e4 | 
[V:4] [M:3/1]z4E,4E,4 | 
[V:1] z12 | 
[V:2] A6G2B4 | 
[V:3] f6e2e2d2 | 
[V:4] D,6E,F,G,4 | 
[V:1] z4e4e4 | 
[V:2] A4G8 | 
[V:3] d6c2c4 | 
[V:4] F,4E,6D,2 | 
[V:1] f4e2d2c4 | 
[V:2] B2A2G2F2E4 | 
[V:3] d4z4g4 | 
[V:4] D,4z4z4 | 
[V:1] d4z4g4 | 
[V:2] D8z4 | 
[V:3] f6d2e2c2 | 
[V:4] D,4F,2G,2E,4 | 
[V:1] f6d2e2c2 | 
[V:2] A4G2F2E4 | 
[V:3] d8z4 | 
[V:4] D,8z4 | 
[V:1] d4c2B2A4 | 
[V:2] D2E2F2G2A2F2 | 
[V:3] z12 | 
[V:4] z12 | 
[V:1] B4z4d4 | 
[V:2] G4z4z4 | 
[V:3] G2A2B2c2d2B2 | 
[V:4] G,4F,2E,2D,4 | 
[V:1] e2c2e2f2g2e2 | 
[V:2] G4G2F2E4 | 
[V:3] c8z4 | 
[V:4] C,4C,4C4 | 
[V:1] f4e2d2c4 | 
[V:2] D4z4z4 | 
[V:3] d2e2f2g2a2f2 | 
[V:4] D4C2B,2A,4 | 
[V:1] d4c2B2A4 | 
[V:2] D2E2F2G2A2F2 | 
[V:3] g4z4z4 | 
[V:4] G,4z4z4 | 
[V:1] G4g4f4 | 
[V:2] G4z4z4 | 
[V:3] G2A2B2c2d2B2 | 
[V:4] G,4F,2E,2D,4 | 
[V:1] e6d2d4 | 
[V:2] G2A2B2c2d2B2 | 
[V:3] c4d4d4 | 
[V:4] C,4G,4G,4 | 
[V:1] e8z4 | 
[V:2] c6B2A2G2 | 
[V:3] c12 | 
[V:4] C,12 | 
[V:1] G2A2B2c2d2B2 | 
[V:2] G4F2E2D4 | 
[V:3] z12 | 
[V:4] z4z4G,4 | 
[V:1] c4e6f2 | 
[V:2] C4z4z4 | 
[V:3] A2B2c2d2e2c2 | 
[V:4] A,4G,2F,2E,4 | 
[V:1] f6e2d2c2 | 
[V:2] D2E2F2G2A2F2 | 
[V:3] d8z4 | 
[V:4] D,12 | 
[V:1] B4d6e2 | 
[V:2] G4A6B2 | 
[V:3] d2e2f2g2a2f2 | 
[V:4] G,4F,2E,2D,4 | 
[V:1] e4d2c2B4 | 
[V:2] c4B2A2G4 | 
[V:3] g4f2e2d4 | 
[V:4] C,4G,8 | 
[V:1] c4d6c2 | 
[V:2] A4G6E2 | 
[V:3] e4d2c2B4 | 
[V:4] C4B,2A,2G,4 | 
[V:1] c6B2B4 | 
[V:2] F4G8 | 
[V:3] c4d8 | 
[V:4] A,4G,8 | 
[V:1] c12- | 
[V:2] G4A4G2F2 | 
[V:3] c12- | 
[V:4] E,4F,4E,2D,2 | 
[V:1] c12 |]  
[V:2] E12 |]  
[V:3] c12 |]  
[V:4] C,12 |]  



